X:3677
T:Cynthia,La. CJF.065
T:La Cynthia. CJF.065
M:6/8
L:1/8
Q:120
C:Berbiguier
S: C.J.Fox MS, 1829/33, Beverley,E.Yorks.
R:Quadrille
O:England
A:East Yorkshire
B:Kidson Coll.Mitchell Lib.M1805
N:The asterisk note is e2 in the MS. - PJH.
Z:P J Headford 2000
K:D
"$"d/f/|a2a (ba).^g|(a3f2)d|e2e {e/f/}gfe|(d3-dd'c'|\
b2g gab|(a3f2)a|(eb).a (gf).e|d3-d2h||!e|(e3a2)"*"e|
(e3c'2)c'|b2b {a}(^gf).g|a3-abc'|d'2d' d'c'd'|\
d'2c' c'd'c'|b^ab d'b^g|a3"   $"a2||!\
K:G
z|b3"~"g3{f/g/}|d3-d.B.c|
(de).f (gd).B|(d3c)(ab)|.c' (fg) .a (AB)|c3-cc'b|(ab).c' " D Capo    $"(
de).f|(a3g2)||


